assets/svg/icon_channel_type.svg

<svg width="24" height="24" viewBox="0 0 24 24" fill="none" xmlns="http://www.w3.org/2000/svg">
<path fill-rule="evenodd" clip-rule="evenodd" d="M11.1442 5.64576C10.2171 5.05386 9.58018 4.64907 9.0891 4.42681C8.59851 4.20479 8.42857 4.24742 8.34116 4.29242C8.25887 4.33475 8.13078 4.43825 8.04104 4.95353C7.9507 5.47245 7.93095 6.21247 7.90458 7.29619L7.89118 7.84583L7.88884 7.94591C7.87729 8.44962 7.86741 8.88226 7.68365 9.26725C7.49871 9.65482 7.16853 9.92996 6.78862 10.2465L6.71319 10.3094L6.29921 10.6554C5.48221 11.3382 4.92808 11.8037 4.58635 12.192C4.25206 12.5719 4.24194 12.7433 4.26303 12.8546C4.28589 12.9754 4.37153 13.1466 4.83717 13.4104C5.30724 13.6767 6.00611 13.951 7.02579 14.3487L7.5435 14.5506L7.63342 14.5856C8.11329 14.7721 8.51354 14.9276 8.82053 15.2278C9.12727 15.5277 9.29245 15.9246 9.49086 16.4014L9.52811 16.4907L9.74293 17.0051C10.166 18.018 10.4578 18.7127 10.7357 19.1778C11.0115 19.6396 11.184 19.7196 11.3021 19.7389C11.4097 19.7564 11.5782 19.7438 11.9479 19.3976C12.3253 19.0441 12.7738 18.4753 13.4317 17.637L13.7651 17.2121L13.8259 17.1344C14.1305 16.7449 14.3957 16.4058 14.7771 16.2096C15.1567 16.0142 15.5886 15.9926 16.0893 15.9677L16.1892 15.9626L16.736 15.9345C17.8142 15.879 18.5496 15.8395 19.063 15.735C19.5715 15.6315 19.6708 15.5011 19.7112 15.4165C19.755 15.3245 19.7916 15.1499 19.5574 14.6631C19.3229 14.1756 18.9027 13.5467 18.2889 12.6319L17.9772 12.1674L17.9222 12.0856C17.6339 11.6571 17.3926 11.2986 17.3132 10.8791C17.2331 10.4561 17.3302 10.0392 17.4446 9.54836L17.4663 9.45461L17.5895 8.92287C17.8321 7.87455 17.9962 7.15861 18.0378 6.63169C18.0786 6.11479 17.9858 5.95118 17.8939 5.86131C17.8028 5.77228 17.6396 5.68381 17.1277 5.73843C16.6051 5.7942 15.8974 5.97778 14.8602 6.2495L14.3342 6.38728L14.2409 6.41181C13.756 6.53954 13.342 6.6486 12.9172 6.57922C12.4961 6.51048 12.1319 6.27727 11.6983 5.99967L11.6149 5.94628L11.1442 5.64576ZM7.76644 3.17586C8.37842 2.86092 9.01291 3.01397 9.60681 3.28275C10.1904 3.54686 10.9038 4.00231 11.7758 4.55916L12.2906 4.88784C12.8536 5.24728 12.9871 5.31824 13.1195 5.33986C13.2479 5.36081 13.3861 5.33751 14.016 5.1725L14.5938 5.02113C15.5662 4.76637 16.3662 4.55679 16.9945 4.48975C17.6446 4.42038 18.2808 4.48333 18.7718 4.96344C19.262 5.44272 19.3412 6.07751 19.2896 6.73056C19.2397 7.3625 19.0526 8.17074 18.8249 9.15425L18.6898 9.73784C18.5425 10.374 18.5224 10.5152 18.547 10.6455C18.5724 10.7795 18.6475 10.9127 19.0199 11.4676L19.3606 11.9754C19.9384 12.8364 20.4107 13.5401 20.689 14.1186C20.9723 14.7074 21.1403 15.3374 20.8445 15.9572C20.5454 16.5842 19.9465 16.8368 19.3134 16.9656C18.6962 17.0912 17.8652 17.1338 16.8546 17.1858L16.2537 17.2167C15.596 17.2505 15.4596 17.2706 15.3518 17.3261C15.246 17.3806 15.1543 17.4758 14.753 17.9873L14.3858 18.4553C13.7704 19.2397 13.2628 19.8867 12.8063 20.3141C12.3338 20.7567 11.7842 21.0899 11.0997 20.9783C10.4259 20.8682 9.99492 20.3865 9.65762 19.8219C9.32786 19.2698 9.00228 18.4902 8.60412 17.5368L8.36938 16.9746C8.1132 16.3614 8.04338 16.2243 7.94258 16.1257C7.84212 16.0274 7.70458 15.9614 7.08724 15.7205L6.56953 15.5187L6.52115 15.4998C5.56166 15.1256 4.77672 14.8195 4.21807 14.503C3.6457 14.1787 3.15612 13.7589 3.02912 13.0882C2.90036 12.4078 3.21539 11.8491 3.64369 11.3624C4.057 10.8927 4.68748 10.3658 5.45182 9.72704L5.90783 9.34586C6.40595 8.92956 6.49862 8.83484 6.55036 8.72644C6.60336 8.61529 6.61968 8.47591 6.63576 7.81526L6.65049 7.21173C6.67519 6.19531 6.69553 5.36042 6.80394 4.73804C6.91487 4.10107 7.14936 3.49347 7.76644 3.17586ZM5.69577 17.4162C5.94098 17.1711 6.33856 17.1711 6.58377 17.4162C6.82897 17.6614 6.82897 18.059 6.58377 18.3042L4.90941 19.9786C4.66421 20.2238 4.26663 20.2238 4.02142 19.9786C3.77621 19.7334 3.77621 19.3358 4.02142 19.0906L5.69577 17.4162Z" fill="#0166FF"/>
</svg>

<svg xmlns="http://www.w3.org/2000/svg" width="24" height="24" fill="none"><path fill="#494949" fill-rule="evenodd" d="M11.144 5.646c-.927-.592-1.564-.997-2.055-1.22-.49-.221-.66-.179-.748-.134-.082.043-.21.146-.3.662-.09.518-.11 1.258-.136 2.342l-.014.55-.002.1c-.012.504-.022.936-.205 1.321-.185.388-.515.663-.895.98l-.076.062-.414.346c-.817.683-1.37 1.149-1.713 1.537-.334.38-.344.551-.323.663.023.12.109.292.574.555.47.267 1.17.541 2.189.939l.518.202.09.035c.48.186.88.342 1.187.642.306.3.471.697.67 1.173l.037.09.215.514c.423 1.013.715 1.708.993 2.173.275.462.448.542.566.56.108.018.276.006.646-.34.377-.354.826-.923 1.484-1.761l.333-.425.06-.078c.306-.39.57-.728.952-.924.38-.196.812-.217 1.312-.242l.1-.005.547-.028c1.078-.056 1.814-.096 2.327-.2.509-.103.608-.234.648-.319.044-.091.08-.266-.154-.753s-.654-1.116-1.268-2.031l-.312-.465-.055-.081c-.288-.429-.53-.787-.609-1.207-.08-.423.017-.84.132-1.33l.021-.094.123-.532c.243-1.048.407-1.764.449-2.291.04-.517-.052-.68-.144-.77-.091-.09-.254-.178-.766-.124-.523.056-1.23.24-2.268.511l-.526.138-.093.025c-.485.128-.899.237-1.324.167-.42-.069-.785-.302-1.219-.58l-.083-.053zm-3.378-2.47c.612-.315 1.247-.162 1.84.107.584.264 1.298.72 2.17 1.276l.515.329c.563.36.696.43.829.452.128.02.266-.002.896-.167l.578-.152c.972-.255 1.772-.464 2.4-.531.65-.07 1.287-.007 1.778.473.49.48.57 1.115.518 1.768-.05.632-.237 1.44-.465 2.423l-.135.584c-.148.636-.168.777-.143.908.025.133.1.267.473.822l.34.507c.578.861 1.05 1.565 1.329 2.144.283.588.451 1.218.155 1.838-.299.627-.898.88-1.53 1.009-.618.125-1.449.168-2.46.22l-.6.03c-.658.034-.794.055-.902.11-.106.055-.198.15-.599.661l-.367.468c-.616.785-1.123 1.432-1.58 1.86-.472.442-1.022.775-1.706.663-.674-.11-1.105-.591-1.442-1.156-.33-.552-.656-1.332-1.054-2.285l-.235-.562c-.256-.614-.326-.75-.426-.85-.1-.098-.238-.164-.856-.405l-.517-.201-.049-.02c-.96-.373-1.744-.68-2.303-.996-.572-.324-1.062-.744-1.189-1.415-.129-.68.186-1.239.615-1.726.413-.47 1.043-.996 1.808-1.635l.456-.381c.498-.416.59-.511.642-.62.053-.11.07-.25.086-.91l.014-.604c.025-1.017.046-1.852.154-2.474.11-.637.345-1.245.962-1.562m-2.07 14.24a.628.628 0 0 1 .888.888L4.909 19.98a.628.628 0 0 1-.888-.888z" clip-rule="evenodd"/></svg>
